!!!COM: Anonim
!!!CDT: [?]
!!!OTL@@POL: Lilaÿ lilaÿ Pacholątko
!!!TXO: Polish
!!!ODT: 
!!!GTL: Hymnbook E
!!!ARL: Opactwo św. Wojciecha, Staniątki 
!!!voices:	1
**kern	**kern	**text	**kern	**text
*staff3	*staff2	*staff2	*staff1	*staff1
*I"Basso	*I"Canto II	*	*I"Canto I	*
=1-	=1-	=1-	=1-	=1-
*clefF4	*clefG2	*	*clefG2	*
*k[]	*k[]	*	*k[]	*
*met(c|)	*met(c|)	*	*met(c|)	*
*M2/2	*M2/2	*	*M2/2	*
8A	8a	Li-	8cc	Li-
8A	16g#LL	-laj	16bLL	-laj
.	16aJJ	.	16aJJ	.
8G#	8b	li-	8b	li-
8G#	8b	-laj	8e	-laj
8A	8cc	Pa-	8cc	Pa-
8F	16bLL	-cho-	16ccLL	-cho-
.	16aJJ	.	16ddJJ	.
8.E	8g#	-lą-	8ee	-lą-
.	8g#	-tko	8ee	-tko
16D	.	.	.	.
=2	=2	=2	=2	=2
8C	8a	li-	8e	li-
8C	8e	-laj	16aLL	-laj
.	.	.	16g#JJ	.
8D	16aLL	ma-	16f#LL	ma-
.	16gJJ	.	16g#JJ	.
8AA	16fLL	-leń-	8a	-leń-
.	16aJJ	.	.	.
8E	8.a	-kie	16bLL	-kie
.	.	.	16ccJJ	.
8EE	.	.	16ddLL	dzie-
.	16g#	dzie-	16eeJJ	.
8AA	8a	-cią-	8cc	-cią-
8AA	8a	-tko	8a	-tko
=3	=3	=3	=3	=3
!!linebreak:original
8G#	8b	nie	8b	nie
8G#	8g#	tur-	8ee	tur-
8A	16aLL	-buj	16ccLL	-buj
.	16g#JJ	.	16bJJ	.
8E	16f#LL	się	16aLL	się
.	16eJJ	.	16g#JJ	.
8B	8.e	nie	8f	nie
8BB	.	.	16bLL	fra-
.	16d#	fra-	16aJJ	.
8E	8e	-suj	8g#	-suj
8E	8e	się	16fLL	się
.	.	.	16eJJ	.
=4	=4	=4	=4	=4
8G#	8g#	bądź	8b	bądź
8G#	8b	we-	8ee	we-
8A	16aLL	-so-	8cc	-so-
.	16bJJ	.	.	.
8D	16ccLL	-ły	16bLL	-ły
.	16ddJJ	.	16aJJ	.
8E	8ee	boś~z	8.a	boś~z
8EE	8b	A-	.	.
.	.	.	16g	A-
8AA	8cc	-nio-	8a	-nio-
8AA	8a	-ły	8a	-ły
=5	=5	=5	=5	=5
8r	8r	.	8r	.
8G#	8e	tyś	8b	tyś
8A	8a	nie-	16ccLL	nie-
.	.	.	16dd#JJ	.
8E	8g#	-o-	8ee	-o-
8.B	8.f#	-gar-	8.ee	-gar-
16BB	16e	-nio-	16dd#	-nio-
4E	4e	-ny	4ee	-ny
=6	=6	=6	=6	=6
!!linebreak:original
8G#	8b	tak	8r	.
8G#	8e	to	16ee	tak
.	.	.	16b	to
4A	4a	jest	4cc	jest
8E	8.a	żeś	16bLL	żeś
.	.	.	16aJJ	.
8EE	.	.	16bLL	B&oacute;g
.	16g	B&oacute;g	16ccJJ	.
4AA	4a	jest	4a	jest
=7	=7	=7	=7	=7
8r	8r	.	8r	.
8G	8e	i	8b	i
8A	8a	nie-	16ccLL	nie-
.	.	.	16ddJJ	.
8E	8g#	-zwy-	8ee	-zwy-
8.B	8.f	-cię-	8.ee	-cię-
16BB	16e	-żo-	16dd#	-żo-
4E	4e	-ny	4ee	-ny
=8	=8	=8	=8	=8
8G#	8b	tak	8r	.
8G#	8e	to	16ee	tak
.	.	.	16b	to
4A	4a	jest	4cc	jest
8E	8.a	żeś	16bLL	żeś
.	.	.	16aJJ	.
8E	.	.	16bLL	B&oacute;g
.	16g#	B&oacute;g	16ccJJ	.
4AA	4a	jest.	4a	jest.
==:|!	==:|!	==:|!	==:|!	==:|!
*-	*-	*-	*-	*-
!!title: @{OTL}, @{GTL}: @{pag}, ed. @{ENC}
!!!pag: pp. 51v-52r
!!!GTL: Hymnbook E
!!!EFL: 
!!!YEM: Creative Commons CC/BY/NC/SA 4.0
!!!ENC: Marcin Konik
!!!END: 2015-05-03
!!!EED: Marcin Konik
!!!EEV: 
!!!ONB: Encoded in vim by Marcin Konik
!!!CharacterEncoding: utf-8
!!!RDF**kern: l=long note in original notation
!!!RDF**kern: i=editorial accidental
!!muse2ps: z14jc180F
